icons/onenote-light.svg

<svg width="256" height="256" viewBox="0 0 256 256" fill="none" xmlns="http://www.w3.org/2000/svg">
<path d="M196 0H60C26.8629 0 0 26.8629 0 60V196C0 229.137 26.8629 256 60 256H196C229.137 256 256 229.137 256 196V60C256 26.8629 229.137 0 196 0Z" fill="#F4F2ED"/>
<path d="M91.0163 50.0001H209.563C210.531 49.9942 211.492 50.1798 212.388 50.5464C213.285 50.913 214.1 51.4533 214.787 52.1361C215.474 52.819 216.019 53.631 216.391 54.5254C216.763 55.4197 216.955 56.3788 216.955 57.3475V198.165C216.943 200.118 216.159 201.987 214.774 203.363C213.389 204.74 211.515 205.513 209.563 205.513H91.0163C89.0635 205.513 87.1901 204.74 85.805 203.363C84.42 201.987 83.6359 200.118 83.624 198.165V57.3475C83.624 56.3788 83.8155 55.4197 84.1876 54.5254C84.5596 53.631 85.1048 52.819 85.7919 52.1361C86.4789 51.4533 87.2942 50.913 88.1908 50.5464C89.0874 50.1798 90.0476 49.9942 91.0163 50.0001Z" fill="#C15CE3"/>
<path d="M216.955 57.3474C216.959 56.3825 216.77 55.4266 216.398 54.5362C216.027 53.6458 215.48 52.839 214.791 52.1636C214.104 51.4773 213.289 50.9329 212.392 50.5617C211.495 50.1904 210.533 49.9996 209.563 50H91.0161C90.0452 49.9996 89.0837 50.1904 88.1866 50.5617C87.2894 50.9329 86.4742 51.4773 85.7874 52.1636C85.0984 52.839 84.5519 53.6458 84.1802 54.5362C83.8086 55.4266 83.6194 56.3825 83.6239 57.3474V198.165C83.6358 200.118 84.4198 201.987 85.8049 203.363C87.1899 204.74 89.0633 205.513 91.0161 205.513H178.1V88.8556H216.955V57.3474Z" fill="#CA64EA"/>
<path d="M178.1 166.657H216.955V198.211C216.955 199.179 216.763 200.138 216.391 201.033C216.019 201.927 215.474 202.739 214.787 203.422C214.1 204.105 213.285 204.645 212.388 205.012C211.491 205.378 210.531 205.564 209.563 205.558H178.01L178.1 166.657Z" fill="#7719AA"/>
<path d="M178.101 127.756H217V166.656H178.101V127.756Z" fill="#9332BF"/>
<path d="M178.101 88.8564H217V127.757H178.101V88.8564Z" fill="#AE4BD5"/>
<g opacity="0.67">
<path opacity="0.05" d="M130.862 81.7787H92.2333C91.8722 81.7727 91.5135 81.8379 91.1776 81.9706C90.8418 82.1033 90.5353 82.3009 90.2758 82.5521C90.0163 82.8032 89.8088 83.103 89.6652 83.4344C89.5215 83.7657 89.4446 84.1221 89.4387 84.4832V171.029C89.4387 171.771 89.7332 172.481 90.2573 173.006C90.7813 173.53 91.4921 173.824 92.2333 173.824H130.862C132.325 173.824 133.728 173.246 134.767 172.216C135.805 171.186 136.395 169.787 136.407 168.325V87.1878C136.383 85.7372 135.787 84.3546 134.748 83.3415C133.71 82.3283 132.313 81.7666 130.862 81.7787Z" fill="black"/>
<path opacity="0.1" d="M120.63 96.3372H83.624V185.498H120.63C122.559 185.534 124.424 184.805 125.818 183.471C127.212 182.136 128.02 180.305 128.068 178.376V103.459C128.02 101.53 127.212 99.6985 125.818 98.3641C124.424 97.0296 122.559 96.3009 120.63 96.3372Z" fill="black"/>
<path opacity="0.2" d="M120.63 91.1995H83.624V180.36H120.63C121.589 180.378 122.542 180.207 123.435 179.856C124.328 179.506 125.143 178.983 125.834 178.317C126.524 177.652 127.077 176.857 127.46 175.977C127.844 175.098 128.05 174.152 128.068 173.193V98.3216C128.02 96.3927 127.212 94.5608 125.818 93.2264C124.424 91.8919 122.559 91.1632 120.63 91.1995Z" fill="black"/>
<path opacity="0.1" d="M128.699 83.4463H90.0246C89.2834 83.4463 88.5726 83.7407 88.0485 84.2648C87.5244 84.789 87.23 85.4998 87.23 86.241V172.607C87.23 173.348 87.5244 174.059 88.0485 174.583C88.5726 175.107 89.2834 175.402 90.0246 175.402H128.699C130.165 175.378 131.564 174.779 132.593 173.733C133.622 172.687 134.198 171.279 134.198 169.812V89.0808C134.21 88.3489 134.077 87.622 133.806 86.9418C133.536 86.2616 133.133 85.6418 132.622 85.1179C132.111 84.5941 131.501 84.1767 130.828 83.8898C130.154 83.6029 129.431 83.4521 128.699 83.4463Z" fill="black"/>
<path opacity="0.1" d="M128.563 85.79H89.8893C89.1601 85.79 88.4607 86.0797 87.9451 86.5954C87.4295 87.1111 87.1398 87.8104 87.1398 88.5397V174.184C87.1338 174.549 87.2005 174.912 87.336 175.25C87.4715 175.589 87.6731 175.898 87.929 176.158C88.1849 176.418 88.49 176.624 88.8266 176.765C89.1632 176.906 89.5244 176.979 89.8893 176.979L127.977 177.61C129.584 177.494 131.095 176.8 132.23 175.656C133.365 174.513 134.048 172.997 134.153 171.39V91.4696C134.165 90.7458 134.032 90.0268 133.764 89.3547C133.495 88.6825 133.095 88.0705 132.587 87.5545C132.08 87.0384 131.475 86.6286 130.807 86.3489C130.139 86.0692 129.423 85.9252 128.699 85.9253L128.563 85.79Z" fill="black"/>
<path opacity="0.01" d="M122.343 79.2092H83.6691V151.872H83.1282V163.231C83.1282 163.972 83.4226 164.683 83.9467 165.207C84.4708 165.731 85.1816 166.026 85.9228 166.026L116.844 160.391C119.909 160.391 128.158 157.732 128.158 154.667V84.7535C128.134 83.267 127.524 81.8501 126.46 80.8116C125.396 79.7731 123.965 79.1971 122.478 79.2092H122.343Z" fill="black"/>
<path opacity="0.2" d="M120.63 93.6781H83.624V182.839H120.63C122.564 182.863 124.429 182.124 125.821 180.783C127.213 179.441 128.02 177.604 128.068 175.671V100.71C127.997 98.7969 127.178 96.9881 125.787 95.6729C124.396 94.3577 122.544 93.6414 120.63 93.6781Z" fill="black"/>
<path opacity="0.3" d="M120.63 85.8353H83.624V173.148H120.63C122.564 173.172 124.429 172.433 125.821 171.092C127.213 169.75 128.02 167.914 128.068 165.981V92.9573C128.02 91.0284 127.212 89.1966 125.818 87.8621C124.424 86.5276 122.559 85.799 120.63 85.8353Z" fill="black"/>
<path opacity="0.3" d="M120.63 85.8353H83.624V172.607H120.63C122.564 172.631 124.429 171.892 125.821 170.551C127.213 169.209 128.02 167.373 128.068 165.44V92.8672C127.997 90.9541 127.178 89.1453 125.787 87.8301C124.396 86.5149 122.544 85.7986 120.63 85.8353Z" fill="black"/>
<path opacity="0.3" d="M120.63 87.5933H83.624V176.799H120.63C122.564 176.823 124.429 176.085 125.821 174.743C127.213 173.401 128.02 171.565 128.068 169.632V94.8055C128.032 92.8647 127.23 91.0168 125.836 89.6655C124.443 88.3142 122.571 87.5692 120.63 87.5933Z" fill="black"/>
<path opacity="0.2" d="M120.63 89.307H83.624V178.468H120.63C121.589 178.485 122.542 178.314 123.435 177.964C124.328 177.613 125.143 177.09 125.834 176.425C126.524 175.759 127.077 174.964 127.46 174.085C127.844 173.206 128.05 172.259 128.068 171.3V96.429C128.02 94.5001 127.212 92.6683 125.818 91.3338C124.424 89.9993 122.559 89.2706 120.63 89.307Z" fill="black"/>
<path opacity="0.1" d="M127.662 88.3145H89.0329C88.2917 88.3145 87.5809 88.6089 87.0568 89.133C86.5327 89.6571 86.2383 90.3679 86.2383 91.1092V172.246C86.2383 172.987 86.5327 173.698 87.0568 174.222C87.5809 174.746 88.2917 175.041 89.0329 175.041H127.662C129.136 175.029 130.547 174.435 131.585 173.388C132.623 172.341 133.206 170.926 133.206 169.451V93.9038C133.206 92.4292 132.623 91.0143 131.585 89.9674C130.547 88.9205 129.136 88.3263 127.662 88.3145Z" fill="black"/>
<path opacity="0.2" d="M123.38 88.314H84.751C84.3931 88.2508 84.027 88.2508 83.6692 88.314V172.877C84.0268 172.942 84.3933 172.942 84.751 172.877H123.38C124.814 172.94 126.216 172.444 127.292 171.494C128.369 170.544 129.034 169.214 129.15 167.783V93.9034C129.15 93.154 129 92.4121 128.708 91.7219C128.415 91.0318 127.988 90.4074 127.449 89.886C126.911 89.3645 126.273 88.9566 125.574 88.6866C124.875 88.4165 124.129 88.2898 123.38 88.314Z" fill="black"/>
<path opacity="0.3" d="M113.644 83.5361H85.5622C84.821 83.5361 84.1102 83.8306 83.5861 84.3547C83.062 84.8788 82.7676 85.5896 82.7676 86.3308V167.468C82.7675 167.833 82.8401 168.194 82.9811 168.531C83.1221 168.867 83.3287 169.172 83.5888 169.428C83.8489 169.684 84.1573 169.886 84.4962 170.021C84.835 170.157 85.1974 170.223 85.5622 170.217H124.191C125.654 170.218 127.057 169.64 128.096 168.61C129.134 167.58 129.724 166.181 129.735 164.718V91.4695C129.735 88.179 122.208 86.3759 121.397 85.4293C119.012 84.1573 116.346 83.5062 113.644 83.5361Z" fill="black"/>
<path opacity="0.1" d="M125.814 92.3706H87.185C86.8224 92.3585 86.461 92.4196 86.1224 92.5501C85.7838 92.6806 85.4749 92.8778 85.2141 93.1302C84.9533 93.3825 84.746 93.6848 84.6045 94.019C84.463 94.3531 84.3902 94.7124 84.3904 95.0752V176.212C84.3904 176.953 84.6848 177.664 85.2089 178.188C85.733 178.712 86.4438 179.007 87.185 179.007H125.814C127.284 179.007 128.695 178.423 129.734 177.383C130.774 176.343 131.358 174.933 131.358 173.463V97.8699C131.358 97.1439 131.215 96.4252 130.935 95.755C130.656 95.0848 130.247 94.4766 129.732 93.9653C129.216 93.4541 128.605 93.0499 127.932 92.7762C127.26 92.5025 126.54 92.3647 125.814 92.3706Z" fill="black"/>
<path opacity="0.1" d="M122.343 80.7861H83.6691V153.404H83.1282V164.808C83.1281 165.173 83.2007 165.534 83.3417 165.871C83.4827 166.207 83.6892 166.512 83.9494 166.768C84.2095 167.024 84.5179 167.226 84.8568 167.361C85.1956 167.497 85.558 167.564 85.9228 167.558L116.844 161.923C119.909 161.923 128.158 159.264 128.158 156.198V86.3755C128.158 84.8931 127.569 83.4715 126.521 82.4233C125.473 81.375 124.051 80.7861 122.569 80.7861H122.343Z" fill="black"/>
<path opacity="0.15" d="M122.343 82.1846H83.6691V154.802H83.1282V166.161C83.1282 166.903 83.4226 167.613 83.9467 168.138C84.4708 168.662 85.1816 168.956 85.9228 168.956L116.844 163.322C119.909 163.322 128.158 160.662 128.158 157.597V87.7289C128.146 86.2543 127.552 84.8442 126.505 83.8057C125.458 82.7672 124.043 82.1845 122.569 82.1846H122.343Z" fill="black"/>
</g>
<path d="M46.5726 83.3118H120.63C122.595 83.3117 124.48 84.0892 125.873 85.4742C127.267 86.8593 128.056 88.7395 128.068 90.7043V164.809C128.056 166.774 127.267 168.654 125.873 170.039C124.48 171.424 122.595 172.202 120.63 172.202H46.5726C45.5867 172.226 44.606 172.052 43.6883 171.692C42.7705 171.331 41.9341 170.79 41.2285 170.101C40.5228 169.413 39.9621 168.59 39.5794 167.681C39.1967 166.772 38.9997 165.796 39 164.809V90.7043C38.9997 89.7181 39.1967 88.7419 39.5794 87.833C39.9621 86.9241 40.5228 86.1011 41.2285 85.4122C41.9341 84.7233 42.7705 84.1826 43.6883 83.8218C44.606 83.4611 45.5867 83.2877 46.5726 83.3118Z" fill="#7719AA"/>
<path d="M61.5374 100.034H73.2568L93.4953 137.357C94.532 138.935 95.3434 140.242 95.8843 141.189C95.6069 138.765 95.4864 136.326 95.5237 133.886V100.034H105.62V155.433H94.7123L73.5723 118.515C72.7618 117.299 72.0533 116.017 71.4538 114.684C71.7173 117.35 71.8226 120.029 71.7693 122.707V155.162H61.5374V100.034Z" fill="white"/>
</svg>

<svg xmlns="http://www.w3.org/2000/svg" width="256" height="256" fill="none"><path fill="#F4F2ED" d="M196 0H60C26.863 0 0 26.863 0 60v136c0 33.137 26.863 60 60 60h136c33.137 0 60-26.863 60-60V60c0-33.137-26.863-60-60-60"/><path fill="#C15CE3" d="M91.016 50h118.547a7.345 7.345 0 0 1 7.392 7.347v140.818a7.39 7.39 0 0 1-7.392 7.348H91.016a7.39 7.39 0 0 1-7.392-7.348V57.348A7.346 7.346 0 0 1 91.016 50"/><path fill="#CA64EA" d="M216.955 57.347a7.2 7.2 0 0 0-2.164-5.183A7.4 7.4 0 0 0 209.563 50H91.016a7.4 7.4 0 0 0-5.229 2.164 7.2 7.2 0 0 0-2.163 5.183v140.818a7.39 7.39 0 0 0 7.392 7.348H178.1V88.856h38.855z"/><path fill="#7719AA" d="M178.1 166.657h38.855v31.554a7.35 7.35 0 0 1-4.567 6.801 7.4 7.4 0 0 1-2.825.546H178.01z"/><path fill="#9332BF" d="M178.101 127.756H217v38.9h-38.899z"/><path fill="#AE4BD5" d="M178.101 88.856H217v38.901h-38.899z"/><g fill="#000" opacity=".67"><path d="M130.862 81.779H92.233a2.75 2.75 0 0 0-2.794 2.704v86.546a2.797 2.797 0 0 0 2.794 2.795h38.629a5.546 5.546 0 0 0 5.545-5.499V87.188a5.5 5.5 0 0 0-5.545-5.41" opacity=".05"/><path d="M120.63 96.337H83.624v89.161h37.006a7.307 7.307 0 0 0 7.438-7.122v-74.917a7.303 7.303 0 0 0-7.438-7.122" opacity=".1"/><path d="M120.63 91.2H83.624v89.16h37.006a7.3 7.3 0 0 0 5.204-2.043 7.3 7.3 0 0 0 2.234-5.124V98.322a7.304 7.304 0 0 0-7.438-7.123" opacity=".2"/><path d="M128.699 83.446H90.025a2.795 2.795 0 0 0-2.795 2.795v86.366a2.794 2.794 0 0 0 2.795 2.795h38.674a5.59 5.59 0 0 0 5.499-5.59V89.081a5.53 5.53 0 0 0-1.576-3.963 5.54 5.54 0 0 0-3.923-1.672" opacity=".1"/><path d="M128.563 85.79H89.889a2.75 2.75 0 0 0-2.75 2.75v85.644a2.75 2.75 0 0 0 1.688 2.581 2.8 2.8 0 0 0 1.062.214l38.088.631a6.67 6.67 0 0 0 6.176-6.22V91.47a5.47 5.47 0 0 0-1.566-3.915 5.44 5.44 0 0 0-3.888-1.63z" opacity=".1"/><path d="M122.343 79.21H83.669v72.662h-.54v11.359a2.794 2.794 0 0 0 2.794 2.795l30.921-5.635c3.065 0 11.314-2.659 11.314-5.724V84.754a5.635 5.635 0 0 0-5.68-5.545z" opacity=".01"/><path d="M120.63 93.678H83.624v89.161h37.006a7.35 7.35 0 0 0 7.438-7.168V100.71a7.305 7.305 0 0 0-7.438-7.032" opacity=".2"/><path d="M120.63 85.835H83.624v87.313h37.006a7.35 7.35 0 0 0 7.438-7.167V92.957a7.304 7.304 0 0 0-7.438-7.122" opacity=".3"/><path d="M120.63 85.835H83.624v86.772h37.006a7.35 7.35 0 0 0 7.438-7.167V92.867a7.305 7.305 0 0 0-7.438-7.032" opacity=".3"/><path d="M120.63 87.593H83.624V176.8h37.006a7.346 7.346 0 0 0 7.438-7.167V94.805a7.35 7.35 0 0 0-7.438-7.212" opacity=".3"/><path d="M120.63 89.307H83.624v89.161h37.006a7.3 7.3 0 0 0 2.805-.504 7.3 7.3 0 0 0 2.399-1.539 7.3 7.3 0 0 0 2.234-5.125V96.429a7.304 7.304 0 0 0-7.438-7.122" opacity=".2"/><path d="M127.662 88.315h-38.63a2.795 2.795 0 0 0-2.794 2.794v81.137a2.794 2.794 0 0 0 2.795 2.795h38.629a5.59 5.59 0 0 0 5.544-5.59V93.904a5.59 5.59 0 0 0-5.544-5.59" opacity=".1"/><path d="M123.38 88.314H84.751a3.1 3.1 0 0 0-1.082 0v84.563c.358.065.724.065 1.082 0h38.629a5.543 5.543 0 0 0 5.77-5.094v-73.88a5.6 5.6 0 0 0-1.701-4.017 5.6 5.6 0 0 0-4.069-1.572" opacity=".2"/><path d="M113.644 83.536H85.562a2.795 2.795 0 0 0-2.794 2.795v81.137a2.75 2.75 0 0 0 2.794 2.749h38.629a5.54 5.54 0 0 0 5.544-5.499V91.47c0-3.291-7.527-5.094-8.338-6.04a16.1 16.1 0 0 0-7.753-1.894" opacity=".3"/><path d="M125.814 92.37H87.185a2.704 2.704 0 0 0-2.795 2.705v81.137a2.794 2.794 0 0 0 2.795 2.795h38.629a5.54 5.54 0 0 0 5.544-5.544V97.87a5.5 5.5 0 0 0-5.544-5.5" opacity=".1"/><path d="M122.343 80.786H83.669v72.618h-.54v11.404a2.75 2.75 0 0 0 2.794 2.75l30.921-5.635c3.065 0 11.314-2.659 11.314-5.725V86.376a5.59 5.59 0 0 0-5.589-5.59z" opacity=".1"/><path d="M122.343 82.185H83.669v72.617h-.54v11.359a2.797 2.797 0 0 0 2.794 2.795l30.921-5.634c3.065 0 11.314-2.66 11.314-5.725V87.729a5.59 5.59 0 0 0-5.589-5.544z" opacity=".15"/></g><path fill="#7719AA" d="M46.573 83.312h74.057a7.436 7.436 0 0 1 7.438 7.392v74.105a7.436 7.436 0 0 1-7.438 7.393H46.573A7.396 7.396 0 0 1 39 164.809V90.704a7.393 7.393 0 0 1 7.573-7.392"/><path fill="#fff" d="M61.537 100.034h11.72l20.238 37.323c1.037 1.578 1.848 2.885 2.39 3.832a57 57 0 0 1-.361-7.303v-33.852h10.096v55.399H94.712l-21.14-36.918a26.5 26.5 0 0 1-2.118-3.831 68 68 0 0 1 .315 8.023v32.455H61.537z"/></svg>
